resources/devices/human_technik_1.svg

<?xml version="1.0" encoding="UTF-8" standalone="no"?>
<svg
   xml:space="preserve"
   width="60"
   height="100"
   version="1.1"
   id="svg7"
   sodipodi:docname="human_technik_1.svg"
   inkscape:version="1.3.2 (091e20e, 2023-11-25)"
   xmlns:inkscape="http://www.inkscape.org/namespaces/inkscape"
   xmlns:sodipodi="http://sodipodi.sourceforge.net/DTD/sodipodi-0.dtd"
   xmlns="http://www.w3.org/2000/svg"
   xmlns:svg="http://www.w3.org/2000/svg"><defs
     id="defs7" /><sodipodi:namedview
     id="namedview7"
     pagecolor="#ffffff"
     bordercolor="#000000"
     borderopacity="0.25"
     inkscape:showpageshadow="2"
     inkscape:pageopacity="0.0"
     inkscape:pagecheckerboard="0"
     inkscape:deskcolor="#d1d1d1"
     inkscape:current-layer="svg7" /><g
     id="g1"
     transform="translate(2.7227035,2.4999605)"><path
       id="path4"
       style="display:inline;fill:none;stroke:#000000;stroke-width:3.00001;stroke-linecap:round;stroke-linejoin:round;stroke-miterlimit:4.7;stroke-dasharray:none;stroke-opacity:1"
       d="M 4.418035,59.349312 7.947811,42.717449 21.415077,27.859168 M 40.749894,92.248177 35.631319,90.313427 34.552259,71.130141 23.363768,57.152795 11.77411,73.716853 12.239137,92.085593 5.6190478,93.500074 M 21.177813,28.095782 23.126342,57.86979 M 21.651077,28.095168 37.166235,43.738447 51.334113,30.190141" /><g
       id="g11"
       inkscape:label="head"
       transform="translate(-26.289964,-2.9784966)"><ellipse
         style="fill:#ffffff;stroke:#000000;stroke-width:2;stroke-linecap:butt;stroke-linejoin:miter;stroke-miterlimit:5;stroke-dasharray:none"
         id="path7"
         cx="46.572159"
         cy="16.827953"
         rx="9.6214037"
         ry="9.4020233" /></g><path
       d="m 53.110012,36.136708 c 0.381108,0 0.742162,-0.150438 1.017963,-0.421229 0.561637,-0.561634 0.575966,-1.483984 0,-2.030914 l -7.644734,-7.25934 c 0.25073,-0.972848 -0.02004,-2.020902 -0.732133,-2.732974 -0.717088,-0.717088 -1.770155,-0.997908 -2.748005,-0.732133 -0.13038,0.0351 -0.230671,0.135395 -0.265772,0.265774 -0.03511,0.13038 0,0.265775 0.09528,0.361051 l 1.22858,1.228579 -0.260759,0.957789 -0.957791,0.260761 -1.22858,-1.228579 c -0.09528,-0.09528 -0.235684,-0.130379 -0.36105,-0.09528 -0.13038,0.0351 -0.230671,0.135395 -0.265775,0.265774 -0.265775,0.977849 0.01004,2.030932 0.732134,2.748019 0.712074,0.712076 1.760125,0.982863 2.732959,0.732134 l 7.644737,7.259337 c 0.270788,0.270791 0.631839,0.421229 1.012951,0.421229 z M 43.93582,23.62706 c 0.481403,0.04012 0.937732,0.250729 1.288754,0.601753 0.571667,0.571664 0.757206,1.409105 0.481404,2.18137 -0.05015,0.135392 -0.01504,0.290846 0.09026,0.391138 l 7.8052,7.419807 c 0.265775,0.265772 0.265775,0.702043 0,0.967818 -0.130379,0.130379 -0.300875,0.200584 -0.486416,0.200584 -0.180526,0 -0.356038,-0.0702 -0.481401,-0.200584 l -7.805202,-7.419805 c -0.105304,-0.105307 -0.255745,-0.135395 -0.391138,-0.09026 -0.772249,0.270788 -1.609688,0.09026 -2.181354,-0.481404 -0.351021,-0.351021 -0.556621,-0.807351 -0.601754,-1.288769 l 0.817383,0.817398 c 0.09528,0.09528 0.235687,0.130379 0.366066,0.09528 l 1.374002,-0.376095 c 0.130379,-0.0351 0.230671,-0.135393 0.265774,-0.26579 L 44.853494,24.8055 c 0.0351,-0.130379 0,-0.270788 -0.09528,-0.366066 l -0.81738,-0.81738 z"
       fill="#000000"
       id="path5"
       style="display:inline;stroke-width:0.501459"
       sodipodi:nodetypes="scscscsscccccccccscscccsscccscsccccscc" /><path
       style="display:inline;fill:#ffffff;stroke-width:0.501459"
       d="m 43.93582,23.62706 c 0.481403,0.04012 0.937732,0.250729 1.288754,0.601753 0.571667,0.571664 0.757206,1.409105 0.481404,2.18137 -0.05015,0.135392 -0.01504,0.290846 0.09026,0.391138 l 7.8052,7.419807 c 0.265775,0.265772 0.265775,0.702043 0,0.967818 -0.130379,0.130379 -0.300875,0.200584 -0.486416,0.200584 -0.180526,0 -0.356038,-0.0702 -0.481401,-0.200584 l -7.805202,-7.419805 c -0.105304,-0.105307 -0.255745,-0.135395 -0.391138,-0.09026 -0.772249,0.270788 -1.609688,0.09026 -2.181354,-0.481404 -0.351021,-0.351021 -0.556621,-0.807351 -0.601754,-1.288769 l 0.817383,0.817398 c 0.09528,0.09528 0.235687,0.130379 0.366066,0.09528 l 1.374002,-0.376095 c 0.130379,-0.0351 0.230671,-0.135393 0.265774,-0.26579 L 44.853494,24.8055 c 0.0351,-0.130379 0,-0.270788 -0.09528,-0.366066 l -0.81738,-0.81738 z"
       id="path6" /><path
       style="fill:#000000;stroke-width:2;stroke-linecap:round;stroke-linejoin:round;stroke-miterlimit:5"
       d="M 17.252806,10.291021 H 0"
       id="path9" /><path
       id="path13"
       style="stroke-width:2;stroke-linecap:round;stroke-linejoin:round;stroke-miterlimit:5"
       d="m 11.245748,7.4686979 -9.215391,0.0342 c -0.552281,0.002 -1,0.447715 -1,1 0,0.552285 0.447715,1 1,1 9.964953,0.147668 17.403184,0.05401 27.369688,0.01853 C 29.399896,7.6360769 30.172831,4.190515 28.447434,2.6519788 24.541097,-0.83130141 16.971779,-0.80957251 12.750325,2.2842984 11.298945,3.3480035 11.744023,5.1371329 11.245748,7.4686979 Z"
       sodipodi:nodetypes="cssscaac" /></g></svg>

<svg xmlns="http://www.w3.org/2000/svg" xml:space="preserve" width="60" height="100">
    <path d="m4.418 59.35 3.53-16.633L21.415 27.86M40.75 92.25l-5.119-1.936-1.079-19.183-11.188-13.977-11.59 16.564.465 18.369L5.62 93.5m15.559-65.404 1.948 29.774m-1.475-29.775 15.515 15.643L51.334 30.19" style="display:inline;fill:none;stroke:#000;stroke-width:3.00001;stroke-linecap:round;stroke-linejoin:round;stroke-miterlimit:4.7;stroke-dasharray:none;stroke-opacity:1" transform="translate(2.723 2.5)"/>
    <ellipse cx="46.572" cy="16.828" rx="9.621" ry="9.402" style="fill:#fff;stroke:#000;stroke-width:2;stroke-linecap:butt;stroke-linejoin:miter;stroke-miterlimit:5;stroke-dasharray:none" transform="translate(-23.567 -.479)"/>
    <path d="M53.11 36.137c.381 0 .742-.15 1.018-.422.562-.561.576-1.484 0-2.03l-7.645-7.26a2.86 2.86 0 0 0-.732-2.733 2.84 2.84 0 0 0-2.748-.732.375.375 0 0 0-.17.627l1.228 1.229-.26.957-.958.261-1.229-1.229a.375.375 0 0 0-.627.17 2.83 2.83 0 0 0 .732 2.749c.712.712 1.76.983 2.733.732l7.645 7.26c.27.27.632.42 1.013.42m-9.174-12.51c.481.04.938.25 1.289.602.571.571.757 1.409.481 2.181a.37.37 0 0 0 .09.391l7.805 7.42a.687.687 0 0 1 0 .968c-.13.13-.3.2-.486.2a.67.67 0 0 1-.481-.2l-7.806-7.42a.38.38 0 0 0-.39-.09c-.773.27-1.61.09-2.182-.482a2.1 2.1 0 0 1-.602-1.288l.818.817c.095.095.235.13.366.095l1.374-.376a.38.38 0 0 0 .265-.265l.376-1.375c.036-.13 0-.27-.095-.366l-.817-.817z" style="display:inline;stroke-width:.501459" transform="translate(2.723 2.5)"/>
    <path d="M43.936 23.627c.481.04.938.25 1.289.602.571.571.757 1.409.481 2.181a.37.37 0 0 0 .09.391l7.805 7.42a.687.687 0 0 1 0 .968c-.13.13-.3.2-.486.2a.67.67 0 0 1-.481-.2l-7.806-7.42a.38.38 0 0 0-.39-.09c-.773.27-1.61.09-2.182-.482a2.1 2.1 0 0 1-.602-1.288l.818.817c.095.095.235.13.366.095l1.374-.376a.38.38 0 0 0 .265-.265l.376-1.375c.036-.13 0-.27-.095-.366l-.817-.817z" style="display:inline;fill:#fff;stroke-width:.501459" transform="translate(2.723 2.5)"/>
    <path d="M17.253 10.291H0" style="fill:#000;stroke-width:2;stroke-linecap:round;stroke-linejoin:round;stroke-miterlimit:5" transform="translate(2.723 2.5)"/>
    <path d="m11.246 7.469-9.216.034a1 1 0 1 0 0 2c9.965.148 17.404.054 27.37.018 0-1.885.773-5.33-.953-6.869C24.541-.831 16.972-.81 12.75 2.284c-1.45 1.064-1.006 2.853-1.504 5.186" style="stroke-width:2;stroke-linecap:round;stroke-linejoin:round;stroke-miterlimit:5" transform="translate(2.723 2.5)"/>
</svg>
